src/lib/packages/icons/src/assets/line/book-open-text.svg

<svg width="24" height="24" viewBox="0 0 24 24" fill="none" xmlns="http://www.w3.org/2000/svg">
<path d="M21.0359 4.18199C21.0349 4.18199 21.0349 4.18201 21.0339 4.18101C19.3319 3.37401 17.445 3.09099 15.425 3.33799C13.971 3.51699 12.741 4.34794 12 5.51194C11.258 4.34894 10.029 3.51699 8.57495 3.33799C6.55195 3.09099 4.66706 3.37401 2.96606 4.18101C2.96606 4.18101 2.96609 4.18101 2.96509 4.18101C2.53109 4.38701 2.25 4.83393 2.25 5.31993V18.3249C2.25 18.7189 2.42992 19.08 2.74292 19.317C3.05492 19.554 3.4711 19.6289 3.8501 19.5229C6.7581 18.6969 9.21701 19.047 11.583 20.624C11.593 20.631 11.605 20.633 11.615 20.639C11.626 20.645 11.634 20.655 11.646 20.661C11.657 20.667 11.6699 20.664 11.6809 20.67C11.7819 20.718 11.889 20.75 11.999 20.75C12.109 20.75 12.2159 20.718 12.3169 20.67C12.3279 20.665 12.3411 20.667 12.3521 20.661C12.3631 20.655 12.3721 20.646 12.3821 20.639C12.3921 20.633 12.4041 20.631 12.4141 20.624C14.7801 19.046 17.238 18.696 20.147 19.522C20.527 19.63 20.9409 19.554 21.2539 19.317C21.5669 19.081 21.7471 18.7189 21.7471 18.3249V5.31993C21.7501 4.83593 21.4699 4.38899 21.0359 4.18199ZM6.73291 17.593C5.77191 17.593 4.779 17.728 3.75 17.995V5.46995C5.17 4.82695 6.69309 4.61603 8.39209 4.82603C10.0221 5.02603 11.25 6.41596 11.25 8.05796V18.6889C9.815 17.9579 8.31691 17.593 6.73291 17.593ZM20.25 17.996C17.522 17.287 15.056 17.514 12.75 18.691V8.06004C12.75 6.41704 13.9789 5.02798 15.6079 4.82798C16.0299 4.77598 16.441 4.74998 16.842 4.74998C18.057 4.74998 19.182 4.98903 20.249 5.47203V17.996H20.25ZM15 8.24998H18C18.414 8.24998 18.75 8.58598 18.75 8.99998C18.75 9.41398 18.414 9.74998 18 9.74998H15C14.586 9.74998 14.25 9.41398 14.25 8.99998C14.25 8.58598 14.586 8.24998 15 8.24998ZM17.75 12C17.75 12.414 17.414 12.75 17 12.75H15C14.586 12.75 14.25 12.414 14.25 12C14.25 11.586 14.586 11.25 15 11.25H17C17.414 11.25 17.75 11.586 17.75 12Z" fill="currentColor"/>
</svg>

<svg xmlns="http://www.w3.org/2000/svg" width="24" height="24" fill="none"><path fill="currentColor" d="m21.036 4.182-.002-.001c-1.702-.807-3.589-1.09-5.609-.843A4.746 4.746 0 0 0 12 5.512a4.751 4.751 0 0 0-3.425-2.174c-2.023-.247-3.908.036-5.609.843A1.264 1.264 0 0 0 2.25 5.32v13.005c0 .394.18.755.493.992.312.237.728.312 1.107.206 2.908-.826 5.367-.476 7.733 1.101.01.007.022.009.032.015.011.006.019.016.031.022.011.006.024.003.035.009.1.048.208.08.318.08.11 0 .217-.032.318-.08.01-.005.024-.003.035-.009.011-.006.02-.015.03-.022.01-.006.022-.008.032-.015 2.366-1.578 4.824-1.928 7.733-1.102.38.108.794.032 1.107-.205.313-.236.493-.598.493-.992V5.32a1.257 1.257 0 0 0-.711-1.138ZM6.733 17.593c-.961 0-1.954.135-2.983.402V5.47c1.42-.643 2.943-.854 4.642-.644a3.26 3.26 0 0 1 2.858 3.232v10.63a9.8 9.8 0 0 0-4.517-1.095Zm13.517.403c-2.728-.709-5.194-.482-7.5.695V8.06a3.26 3.26 0 0 1 2.858-3.232c.422-.052.833-.078 1.234-.078 1.215 0 2.34.239 3.407.722v12.524h.001ZM15 8.25h3a.75.75 0 0 1 0 1.5h-3a.75.75 0 0 1 0-1.5ZM17.75 12a.75.75 0 0 1-.75.75h-2a.75.75 0 0 1 0-1.5h2a.75.75 0 0 1 .75.75Z"/></svg>
